polaris-icons/icons/new-icons/HeartMajor.svg

<svg width="20" height="20" viewBox="0 0 20 20" fill="none" xmlns="http://www.w3.org/2000/svg">
<path fill-rule="evenodd" clip-rule="evenodd" d="M8.46888 5.785C7.50308 4.73833 5.96409 4.73833 4.99829 5.785C4.00057 6.86624 4.00057 8.64235 4.99829 9.7236L10 15.144L15.0017 9.7236C15.9994 8.64235 15.9994 6.86624 15.0017 5.785C14.0359 4.73833 12.4969 4.73833 11.5311 5.785L10.5512 6.84696C10.4092 7.00083 10.2094 7.08835 10 7.08835C9.79063 7.08835 9.59079 7.00083 9.44881 6.84696L8.46888 5.785ZM3.8959 4.76777C5.45568 3.07741 8.01149 3.07741 9.57127 4.76777L10 5.2324L10.4287 4.76777C11.9885 3.07741 14.5443 3.07741 16.1041 4.76777C17.632 6.42355 17.632 9.08504 16.1041 10.7408L10.9187 16.3604C10.4237 16.8968 9.57632 16.8968 9.08135 16.3604L3.8959 10.7408C2.36803 9.08504 2.36803 6.42355 3.8959 4.76777Z" fill="#4A4A4A"/>
</svg>

<svg viewBox="0 0 20 20" xmlns="http://www.w3.org/2000/svg"><path fill-rule="evenodd" d="M8.469 5.785c-.966-1.047-2.505-1.047-3.47 0-.998 1.081-.998 2.857 0 3.939l5.001 5.42 5.002-5.42c.997-1.082.997-2.858 0-3.939-.966-1.047-2.505-1.047-3.47 0l-.98 1.062a.75.75 0 0 1-1.103 0l-.98-1.062Zm-4.573-1.017c1.56-1.69 4.115-1.69 5.675 0l.429.464.429-.464c1.56-1.69 4.115-1.69 5.675 0 1.528 1.656 1.528 4.317 0 5.973l-5.185 5.62a1.25 1.25 0 0 1-1.838 0l-5.185-5.62c-1.528-1.656-1.528-4.317 0-5.973Z" fill="#5C5F62"/></svg>
